icons/repo-forked-24.svg

<svg xmlns="http://www.w3.org/2000/svg" width="24" height="24" viewBox="0 0 24 24">
  <defs/>
  <path d="M8.75,19.25 C8.75,17.455 10.205,16 12,16 C13.795,16 15.25,17.455 15.25,19.25 C15.25,21.045 13.795,22.5 12,22.5 C10.205,22.5 8.75,21.045 8.75,19.25 Z M15,4.75 C15,2.955 16.455,1.5 18.25,1.5 C20.045,1.5 21.5,2.955 21.5,4.75 C21.5,6.545 20.045,8 18.25,8 C16.455,8 15,6.545 15,4.75 Z M2.5,4.75 C2.5,2.955 3.955,1.5 5.75,1.5 C7.545,1.5 9,2.955 9,4.75 C9,6.545 7.545,8 5.75,8 C3.955,8 2.5,6.545 2.5,4.75 Z M5.75,6.5 C6.716,6.5 7.5,5.716 7.5,4.75 C7.5,3.784 6.716,3 5.75,3 C4.784,3 4,3.784 4,4.75 C4,5.716 4.784,6.5 5.75,6.5 Z M12,21 C12.966,21 13.75,20.216 13.75,19.25 C13.75,18.284 12.966,17.5 12,17.5 C11.034,17.5 10.25,18.284 10.25,19.25 C10.25,20.216 11.034,21 12,21 Z M18.25,6.5 C19.216,6.5 20,5.716 20,4.75 C20,3.784 19.216,3 18.25,3 C17.284,3 16.5,3.784 16.5,4.75 C16.5,5.716 17.284,6.5 18.25,6.5 Z"/>
  <path d="M6.5,7.75 L6.5,8.75 C6.5,9.993 7.507,11 8.75,11 L15.25,11 C16.493,11 17.5,9.993 17.5,8.75 L17.5,7.75 L19,7.75 L19,8.75 C19,10.821 17.321,12.5 15.25,12.5 L8.75,12.5 C6.679,12.5 5,10.821 5,8.75 L5,7.75 Z"/>
  <path d="M11.25,16.25 L11.25,11.25 L12.75,11.25 L12.75,16.25 L11.25,16.25 Z"/>
</svg>

<svg xmlns="http://www.w3.org/2000/svg" width="24" height="24" viewBox="0 0 24 24"><path d="M8.75 19.25a3.25 3.25 0 116.5 0 3.25 3.25 0 01-6.5 0zM15 4.75a3.25 3.25 0 116.5 0 3.25 3.25 0 01-6.5 0zm-12.5 0a3.25 3.25 0 116.5 0 3.25 3.25 0 01-6.5 0zM5.75 6.5a1.75 1.75 0 10-.001-3.501A1.75 1.75 0 005.75 6.5zM12 21a1.75 1.75 0 10-.001-3.501A1.75 1.75 0 0012 21zm6.25-14.5a1.75 1.75 0 10-.001-3.501A1.75 1.75 0 0018.25 6.5z"/><path d="M6.5 7.75v1A2.25 2.25 0 008.75 11h6.5a2.25 2.25 0 002.25-2.25v-1H19v1a3.75 3.75 0 01-3.75 3.75h-6.5A3.75 3.75 0 015 8.75v-1z"/><path d="M11.25 16.25v-5h1.5v5h-1.5z"/></svg>
